X:4276
T:Miss Redmond's Hornpipe
O:england
B:Joyce, P. W.; "Old Irish Folk Music and Songs"
R:hornpipe
H:Sent to me a good many years ago by Mr. (Now Dr.) W. H. Grattan Flood
H:of Enniscorthy Co. Wexford.
L:1/8
M:C
K:G
GA|B2 BG ABAG|FGAB c2 Bc|dcde cAGF|E2 A2 A2 GA|
B2 BG ABAG|FGAB c2 de|=fefd cAG^F|D2 G2 G2:|
|:D2|GABc d2 g2|de=fd cAG^F|GABc d2 e=f|edce d2 ef|
gfge =fefd|e=fed cdeg|=fefd cAG^F|D2 G2 G2:|


